dist/svg/u1F3EC.svg

<?xml version="1.0" encoding="UTF-8"?><svg id="Layer_1" xmlns="http://www.w3.org/2000/svg" viewBox="0 0 40 40"><rect width="40" height="40" style="fill:none;"/><g><path d="M32.39333,8.3618H7.60667c-1.05295,0-1.90667,.85372-1.90667,1.90667v25.03303c0,1.13592,.92075,2.05667,2.05656,2.05667h24.48689c1.13581,0,2.05656-.92075,2.05656-2.05667V10.26846c0-1.05295-.85372-1.90667-1.90667-1.90667Z" style="fill:#d0d5da;"/><path d="M14.75667,26.71044c0,.26324-.21343,.47667-.47667,.47667h-1.90667c-.26324,0-.47667-.21343-.47667-.47667v-1.90667c0-.26335,.21343-.47667,.47667-.47667h1.90667c.26324,0,.47667,.21331,.47667,.47667v1.90667Zm0-6.67333c0,.26324-.21343,.47667-.47667,.47667h-1.90667c-.26324,0-.47667-.21343-.47667-.47667v-1.90667c0-.26335,.21343-.47667,.47667-.47667h1.90667c.26324,0,.47667,.21331,.47667,.47667v1.90667Zm6.67333,6.67333c0,.26324-.21343,.47667-.47667,.47667h-1.90667c-.26324,0-.47667-.21343-.47667-.47667v-1.90667c0-.26335,.21343-.47667,.47667-.47667h1.90667c.26324,0,.47667,.21331,.47667,.47667v1.90667Zm0-6.67333c0,.26324-.21343,.47667-.47667,.47667h-1.90667c-.26324,0-.47667-.21343-.47667-.47667v-1.90667c0-.26335,.21343-.47667,.47667-.47667h1.90667c.26324,0,.47667,.21331,.47667,.47667v1.90667Zm6.67333,6.67333c0,.26324-.21343,.47667-.47667,.47667h-1.90667c-.26324,0-.47667-.21343-.47667-.47667v-1.90667c0-.26335,.21343-.47667,.47667-.47667h1.90667c.26324,0,.47667,.21331,.47667,.47667v1.90667Zm0-6.67333c0,.26324-.21343,.47667-.47667,.47667h-1.90667c-.26324,0-.47667-.21343-.47667-.47667v-1.90667c0-.26335,.21343-.47667,.47667-.47667h1.90667c.26324,0,.47667,.21331,.47667,.47667v1.90667Z" style="fill:#8a94a0;"/><path d="M18.6641,32.21659h2.6718c.68155,0,1.23488,.55333,1.23488,1.23488v3.90669h-5.14157v-3.90669c0-.68155,.55333-1.23488,1.23488-1.23488Z" style="fill:#6b7683;"/><rect x="14.27999" y="2.64184" width="11.44" height="11.44" rx="1.67254" ry="1.67254" style="fill:#4d9dff;"/><path d="M19.70054,5.02513h-1.90468c-.26326,0-.47667,.21341-.47667,.47667v5.72c0,.26326,.21341,.47667,.47667,.47667h2.0007c2.06868,0,3.70413-1.89301,3.26482-4.0375-.31955-1.55985-1.76858-2.63583-3.36083-2.63583Zm.09601,4.76667h-.5707v-2.86h.5707c.78855,0,1.43,.64145,1.43,1.43s-.64145,1.43-1.43,1.43Z" style="fill:#fff;"/></g></svg>

<svg id="Layer_1" data-name="Layer 1" xmlns="http://www.w3.org/2000/svg" viewBox="0 0 40 40"><defs><style>.cls-1{fill:none;}.cls-2{fill:#d0d5da;}.cls-3{fill:#8a94a0;}.cls-4{fill:#6b7683;}.cls-5{fill:#4d9dff;}.cls-6{fill:#fff;}</style></defs><rect class="cls-1" width="40" height="40"/><path class="cls-2" d="M32.393,8.362H7.607A1.907,1.907,0,0,0,5.7,10.268V35.3a2.057,2.057,0,0,0,2.057,2.057H32.243A2.057,2.057,0,0,0,34.3,35.3V10.268A1.907,1.907,0,0,0,32.393,8.362Z"/><path class="cls-3" d="M14.757,26.71a.477.477,0,0,1-.477.477H12.373a.476.476,0,0,1-.476-.477V24.8a.476.476,0,0,1,.476-.477H14.28a.477.477,0,0,1,.477.477Zm0-6.673a.478.478,0,0,1-.477.477H12.373a.477.477,0,0,1-.476-.477V18.13a.476.476,0,0,1,.476-.476H14.28a.477.477,0,0,1,.477.476ZM21.43,26.71a.476.476,0,0,1-.477.477H19.047a.476.476,0,0,1-.477-.477V24.8a.476.476,0,0,1,.477-.477h1.906a.476.476,0,0,1,.477.477Zm0-6.673a.477.477,0,0,1-.477.477H19.047a.477.477,0,0,1-.477-.477V18.13a.476.476,0,0,1,.477-.476h1.906a.476.476,0,0,1,.477.476ZM28.1,26.71a.476.476,0,0,1-.476.477H25.72a.477.477,0,0,1-.477-.477V24.8a.477.477,0,0,1,.477-.477h1.907a.476.476,0,0,1,.476.477Zm0-6.673a.477.477,0,0,1-.476.477H25.72a.478.478,0,0,1-.477-.477V18.13a.477.477,0,0,1,.477-.476h1.907a.476.476,0,0,1,.476.476Z"/><path class="cls-4" d="M18.664,32.217h2.672a1.235,1.235,0,0,1,1.235,1.235v3.907a0,0,0,0,1,0,0H17.429a0,0,0,0,1,0,0V33.451A1.235,1.235,0,0,1,18.664,32.217Z"/><rect class="cls-5" x="14.28" y="2.642" width="11.44" height="11.44" rx="1.673"/><path class="cls-6" d="M19.7,5.025H17.8a.478.478,0,0,0-.477.477v5.72a.477.477,0,0,0,.477.476h2a3.342,3.342,0,0,0,3.264-4.037A3.4,3.4,0,0,0,19.7,5.025Zm.1,4.767h-.571V6.932H19.8a1.43,1.43,0,0,1,0,2.86Z"/></svg>
